!!!!SEGMENT: pl-wtm--r-1410--pc0_stefani-jozef--wariacje-pc0.krn
!!!cenid: 18xx:1882a
!!!COM: Stefani, Józef
!!!COM-rismID: pe30024097
!!!CDT: 1800/04/16-1876/03/19
!!!CNT: Polish
!!!GTL: Wariacje
!!!OTL: [pre correcturam]
!!!PDT:
!!!AGN: Secular; Variations
!!!SMS-siglum: PL-Wtm
!!!SMS-shelfmark: R 1410
!!!SMS-shelfwork: G
!!!SMS-variant:
!!!SMS-altvar:
!!!NIFC-rismSourceID: 1001118428
!!!NIFC-rismChildID: 1001118428
!!!NIFC-islandoraID: pl-wtm:25501
!!!URL-pdf-islandora: https://repozytorium.nifc.pl/islandora/object/pl-wtm%3A25501/datastream/PDF/view
!!!URL-scan: https://polish.musicsources.pl/pl/lokalizacje/galeria/rekopisy/6240 @EN{Scan on Polish Music Sources Website} @PL{Skany w portalu Dziedzictwo Muzyki Polskiej w otwartym dostępie}
!!!ONB-nifc: UWAGA: Temat z 18 wariacjami (w 1 pliku). Wariacje numerowane tylko do No 11.
!!!AIN: 1 forte
!!!key:
**kern	**kern	**dynam
*part1	*part1	*part1
*staff2	*staff1	*
*Iforte	*Iforte	*
*I"[Fortepian]	*I"[Fortepian]	*
*clefF4	*clefG2	*
*k[]	*k[]	*
*A:	*A:	*
*M2/2	*M2/2	*
*met(c|)	*met(c|)	*
*>[A,B,B,C,C,D,D,E,E,F,F,G,G,H,H,I,I,J,J,K,K,L,L,M,M,N,N,O,O,P,P,Q,Q,R,R,S,S,T,T,U,U,V,W,W,X,X,Y,Y,Z,Z1,Z,Z2,a,a,b,b,c,c,d,d,e,e,f,f,g,g,h,i,i,j,j,k,k,l,l1,l,l2,m,m,n,n]	*>[A,B,B,C,C,D,D,E,E,F,F,G,G,H,H,I,I,J,J,K,K,L,L,M,M,N,N,O,O,P,P,Q,Q,R,R,S,S,T,T,U,U,V,W,W,X,X,Y,Y,Z,Z1,Z,Z2,a,a,b,b,c,c,d,d,e,e,f,f,g,g,h,i,i,j,j,k,k,l,l1,l,l2,m,m,n,n]	*
=1	=1	=1
*>A	*>A	*
*all\right	*all\right	*
!	!LO:TX:a:t=proszę o przygotowanie 2-ej wersji -pc1 dla rozpisanych ozdobników (zastąpienie oryginalnych taktów tymi zapisywanymi powyżej) pozdr. EZ	!
!LO:TX:b:t=I	!LO:TX:a:t=I	!
1e	1a	.
=2!|:	=2!|:	=2!|:
*>B	*>B	*
*2\right	*	*
!	!	!LO:DY:rj
2c\	2a/	p
2A\	2cc/	.
=3	=3	=3
*	*2\right	*
1e	2b\	.
.	2dd\	.
=4	=4	=4
2A\	2ccsS\	.
2c\	2a/	.
!!LO:LB:g=original
=5	=5	=5
2e\	1b	.
2d\	.	.
=6	=6	=6
!	!	!LO:HP:t=cresc&colon;
1c	2ee\	<
.	2a/	.
=7	=7	=7
2d\	2bsS\	.
2B\	4cc\	.
.	4dd\	.
=8	=8	=8
!	!	!LO:DY:rj
2e\	2cc\	f
2e\	2bt\	.
.	16qqa/LL	.
.	16qqb/JJ	.
=9	=9	=9
1A	1a	.
!!LO:LB:g=original
=10:|!|:	=10:|!|:	=10:|!|:
*>C	*>C	*
!	!	!LO:DY:rj
2c\	2ee\	p
2A\	2cc\	.
=11	=11	=11
2B\	2dd\	.
2e\	2bsS\	.
=12	=12	=12
2A\	2cc\	.
2c\	2a/	.
=13	=13	=13
2e\	1b	.
2d\	.	.
=14	=14	=14
2c\	2ee\	.
2A\	2ccsS\	.
!!LO:LB:g=original
=15	=15	=15
2c\	2dd\	.
2e\	2b\	.
=16	=16	=16
!	!	!LO:DY:rj
2A\	2cc\	f
2c\	2a/	.
=17	=17	=17
2e\	1b	.
2d\	.	.
=18	=18	=18
2c\	2a/	p
2A\	2cc/	.
=19	=19	=19
1e	2b\	.
.	2dd\	.
!!LO:LB:g=original
=20	=20	=20
2A\	2ccsS\	.
2c\	2a/	.
=21	=21	=21
!	!	!LO:HP:t=cresc
2e\	1b	<
2d\	.	.
=22	=22	=22
1c	2ee\	.
.	2a/	.
=23	=23	=23
2d\	2bsS\	.
2B\	4cc\	.
.	4dd\	.
=24	=24	=24
2e\	2cc\	.
2e\	2bt\	.
.	16qqa/LL	.
.	16qqb/JJ	.
=25	=25	=25
1A	1a	.
!!LO:PB:g=original
=26:|!	=26:|!	=26:|!
*>D	*>D	*
*M2/2	*M2/2	*
*met(c|)	*met(c|)	*
!	!LO:TX:a:t=No 2.	!LO:DY:rj
4c\	4a\	p
4A\	4cc\	.
2e\	4b\	.
.	4dd\	.
=27	=27	=27
4A\	4ccsS\	.
4c\	4a/	.
4e\	2b/	.
4d\	.	.
=28	=28	=28
2c\	4ee\	.
.	4a/	.
4d\	4b/	.
4B\	8cc\L	.
.	8dd\J	.
=29	=29	=29
4e\	4cc\	.
4e\	4bt\	.
2A\	2a/	.
!!LO:LB:g=original
=30:|!	=30:|!	=30:|!
*>E	*>E	*
4c\	4ee\	.
4A\	4cc\	.
4B\	4dd\	.
4e\	4b\	.
=31	=31	=31
4A\	4ccsS\	.
4c\	4a/	.
4e\	2b\	.
4d\	.	.
=32	=32	=32
4c\	4ee\	.
4A\	4cc\	.
4B\	4dd\	.
4e\	4b\	.
=33	=33	=33
4A\	4cc/	.
4c\	4a/	.
4e\	2b/	.
4d\	.	.
!!LO:LB:g=original
=34	=34	=34
4c\	4a\	.
4A\	4cc\	.
2e\	4b\	.
.	4dd\	.
=35	=35	=35
4A\	4cc/	.
4c\	4a/	.
4e\	2b/	.
4d\	.	.
=36	=36	=36
2c\	4ee\	.
.	4a/	.
4d\	4b\	.
4B\	8cc\L	.
.	8dd\J	.
=37	=37	=37
4e\	4cc\	.
4e\	4bt\	.
2A\	2a/	.
!!LO:LB:g=original
=38:|!	=38:|!	=38:|!
*>F	*>F	*
*M2/2	*M2/2	*
*met(c|)	*met(c|)	*
!	!LO:TX:a:i:t=Allegro.	!
!	!LO:TX:a:t=No 3.	!
!	!LO:TUP:a	!
4r	(12a\L	f
.	12cc\	.
.	12b\J	.
*	*Xtuplet	*
4A\	12a\L	.
.	12b\	.
.	12cc\J	.
2e^<\	12b\L	.
.	12dd\	.
.	12cc\J	.
.	12b\L	.
.	12cc\	.
.	12dd\J	.
=39	=39	=39
4A\	12cc\L	.
.	12ee\	.
.	12dd\J	.
4c\	12cc\L	.
.	12b\	.
.	12a\J	.
4e\	2b\)	.
4d\	.	.
=40	=40	=40
2c\	(12ee\L	.
.	12a\	.
.	12b\J	.
.	12cc\L	.
.	12b\	.
.	12a\J	.
4d\	12b\L	.
.	12cc\	.
.	12dd\J	.
4d\	12b\L	.
.	12cc\	.
.	12dd\J	.
!!LO:LB:g=original
=41	=41	=41
4e\	12cc\L	.
.	12dd\	.
.	12ee\J	.
4e\	12dd\L	.
.	12cc\	.
.	12b\J	.
2A\	2a/)	.
=42:|!	=42:|!	=42:|!
*>G	*>G	*
4c\	(12ee\L	.
.	12b\	.
.	12cc\J	.
4A\	12ee\L	.
.	12dd\	.
.	12cc\J	.
4B\	12dd\L	.
.	12b\	.
.	12cc\J	.
4e\	12dd\L	.
.	12cc\	.
.	12b\J)	.
=43	=43	=43
2A\	12cc/L	.
.	12a/	.
.	12b/J	.
.	12cc/L	.
.	12b/	.
.	12a/J	.
4e\	2b/	.
4d\	.	.
!!LO:LB:g=original
=44	=44	=44
4c\	(12ee\L	.
.	12b\	.
.	12cc\J	.
4A\	12ee\L	.
.	12dd\	.
.	12cc\J	.
4B\	12dd\L	.
.	12b\	.
.	12cc\J	.
4e\	12dd\L	.
.	12cc\	.
.	12b\J)	.
=45	=45	=45
2A\	(12cc/L	.
.	12a/	.
.	12b/J	.
.	12cc/L	.
.	12b/	.
.	12a/J	.
4e\	2b/)	.
4d\	.	.
=46	=46	=46
4c\	(12a\L	.
.	12cc\	.
.	12b\J	.
4A\	12a\L	.
.	12b\	.
.	12cc\J	.
2e\	12b\L	.
.	12dd\	.
.	12cc\J	.
.	12b\L	.
.	12cc\	.
.	12dd\J)	.
!!LO:PB:g=original
=47	=47	=47
4A\	(12cc\L	.
.	12ee\	.
.	12dd\J	.
4c\	12cc\L	.
.	12b\	.
.	12a\J	.
4e\	2b\)	.
4d\	.	.
=48	=48	=48
2c\	(12ee\L	.
.	12a\	.
.	12b\J	.
.	12cc\L	.
.	12b\	.
.	12a\J	.
4d\	12b\L	.
.	12cc\	.
.	12dd\J	.
4d\	12b\L	.
.	12cc\	.
.	12dd\J)	.
=49	=49	=49
2e\	(12cc\L	.
.	12dd\	.
.	12ee\J	.
.	12dd\L	.
.	12cc\	.
.	12b\J	.
2A\	2a/)	.
!!LO:LB:g=original
=50:|!	=50:|!	=50:|!
*>H	*>H	*
*M2/2	*M2/2	*
*met(c|)	*met(c|)	*
!	!LO:TX:b:t=Grave	!
!LO:TX:b:t=Legato	!LO:TX:a:t=No 4.	!
8c\L	4a/	.
(8B\	.	.
8A\	4cc\	.
8c\J	.	.
8d\L	4b\	.
8c\	.	.
8B\	(4dd\	.
8e\J)	.	.
=51	=51	=51
(8A\L	4cc\)	.
8B\	.	.
8c\	4a'/	.
8A\J	.	.
8e\L	2b/	.
8d\	.	.
8c\	.	.
8B\J)	.	.
=52	=52	=52
(8c\L	4ee\	.
8A\	.	.
8B\	4a/	.
8c\J	.	.
4d\)	8r	.
.	(8b\L	.
4B\	8cc\	.
.	8dd\J	.
!!LO:LB:g=original
=53	=53	=53
2e\	8cc\L	.
.	8ee\	.
.	8b\	.
.	8ee\J)	.
4c\	2a/	.
4A\	.	.
=54:|!|:	=54:|!|:	=54:|!|:
*>I	*>I	*
(8c\L	4ee|\	.
8B\	.	.
8A\	(4cc\	.
8c\J	.	.
8B\L	4dd\)	.
8e\	.	.
8d\	(4b|\	.
8e\J)	.	.
=55	=55	=55
(8A\L	4cc\)	.
8B\	.	.
8c\	4a/	.
8A\J	.	.
8e\L	2b/	.
8B\	.	.
8e\	.	.
8d\J)	.	.
=56	=56	=56
(8c\L	4ee|\	.
8B\	.	.
8A\	(4cc\	.
8c\J	.	.
8B\L	4dd\)	.
8e\	.	.
8d\	(4b|\	.
8e\J)	.	.
!!LO:LB:g=original
=57	=57	=57
(8A\L	4cc\)	.
8B\	.	.
8c\	4cc\	.
8d\J	.	.
2e\)	2b\	.
=58	=58	=58
(8c\L	4a/	p
8B\	.	.
8A\	(4cc|\	.
8c\J	.	.
8d\L	4b\)	.
8c\	.	.
8B\	(4dd|\	.
8e\J)	.	.
=59	=59	=59
(8A\L	4cc\)	.
8B\	.	.
8c\	4a/	.
8A\J	.	.
8e\L	2b/	.
8d\	.	.
8c\	.	.
8B\J	.	.
=60	=60	=60
(8c\L)	4ee\	.
8A\	.	.
8B\	4a/	.
8c\J	.	.
4d\	8r	.
.	(8b\L	.
4B\)	8cc\	.
.	8dd\J	.
!!LO:LB:g=original
=61	=61	=61
2e\	8cc\L	.
.	8ee\	.
.	8b\	.
.	8ee\J	.
4c\	2a/)	.
4A\	.	.
!!LO:PB:g=original
=62:|!	=62:|!	=62:|!
*>J	*>J	*
*M2/2	*M2/2	*
*met(c|)	*met(c|)	*
!	!LO:TX:a:i:t=Allegro moderato,	!
!	!LO:TX:a:i:t=No 5,	!LO:DY:rj
4c\	8r	p
.	(8ee\L	>
4A\	8cc\	.
.	8a\J)	]
8r	4.b\	.
!	!	!LO:HP:b=2
(8e\L	.	>
8d\	.	.
8B\J)	8ee\	]
=63	=63	=63
4c\	8r	.
.	(8ee\L	>
4A\	8cc\	.
.	8a\J	]
8r	4.b\)	.
!	!	!LO:HP:b=2
(8e\L	.	>
8d\	.	.
8B\J)	8ee\	]
=64	=64	=64
4c\	8r	.
.	(8ee\L	.
4A\	8cc\	.
.	8a\J)	.
4d\	8r	.
.	(8b\L	.
4B\	8dd\	.
.	8b\J)	.
!!LO:LB:g=original
=65	=65	=65
2e\	8a\L	.
.	8cc\	.
.	8b\	.
.	8ee\J	.
4c\	2a/	.
4A\	.	.
=66:|!|:	=66:|!|:	=66:|!|:
*>K	*>K	*
4c\	8r	.
!	!	!LO:DY:rj
.	(8ee\L	f >
4A\	8cc\	.
.	8a\J)	]
8r	4.dd\	.
(8B\L	.	.
8e\	.	.
8d\J)	8b\	.
=67	=67	=67
4c\	8r	.
.	(8ee\L	>
4A\	8cc\	.
.	8a\J)	]
8r	2b^<\	.
(8e\L	.	.
8d\	.	.
8B\J)	.	.
!!LO:LB:g=original
=68	=68	=68
4c\	8r	.
.	(8a\L	>
4A\	8cc\	.
.	8ee\J)	]
2e\	8r	.
.	(8b\L	.
.	8dd\	.
.	8ee\J)	.
=69	=69	=69
8r	2a/	.
!	!	!LO:HP:b=2
(8e\L	.	>
8c\	.	.
8A\J)	.	]
(8e\L	2b/	.
8d\	.	.
8c\	.	.
8B\J)	.	.
=70	=70	=70
4c\	8r	.
.	(8ee\L	>
4A\	8cc\	.
.	8a\J)	]
8r	4.b^<\	.
(8e\L	.	.
8d\	.	.
8B\J)	8ee\	.
!!LO:LB:g=original
=71	=71	=71
4c\	8r	.
.	(8ee\L	>
4A\	8cc\	.
.	8a\J)	]
8r	4.b^<\	.
!	!	!LO:HP:b=2
(8e\L	.	>
8d\	.	.
8B\J)	8ee\	]
=72	=72	=72
4c\	8r	.
.	(8ee\L	.
4A\	8cc\	.
.	8a\J)	.
4d\	8r	.
.	(8b\L	.
4B\	8dd\	.
.	8b\J)	.
=73	=73	=73
2e\	(8a\L	.
.	8cc\	.
.	8b\	.
.	8ee\J)	.
4c\	2a/	.
4A\	.	.
!!LO:LB:g=original
=74:|!	=74:|!	=74:|!
*>L	*>L	*
*M2/2	*M2/2	*
*met(c|)	*met(c|)	*
!	!LO:TX:a:t=No 6.	!LO:DY:rj
(2A\	1r	f
2c\	.	.
=75	=75	=75
2B\	1r	.
2d\)	.	.
=76	=76	=76
*	*	*^
!	!	!LO:DY:a:rj	!LO:DY:b=2:rj
2csS\	(2a/	f	p
2A\	2cc/	.	.
*	*	*v	*v
=77	=77	=77
[1e	2b\	.
.	2dd\	.
=78	=78	=78
2e\]	2cc\	.
2A\	2a/	.
!!LO:LB:g=original
=79	=79	=79
(2B\	[1dd)	.
4c\	.	.
4d\	.	.
=80	=80	=80
2e\)	2dd\]	.
2e\	2b\	.
=81	=81	=81
2c\	1ee	.
2A\	.	.
!!LO:PB:g=original
=82:|!	=82:|!	=82:|!
*>M	*>M	*
*M4/4	*M4/4	*
*met(c)	*met(c)	*
!LO:TX:b:i:t=Legato	!LO:TX:a:i:t=allegro	!
!	!LO:TX:a:i:t=No 7,	!
8c\L	(16a\LL	f
.	16b\	.
8e\	16cc\	.
.	16b\JJ	.
8A\	16dd\LL	.
.	16cc\	.
8c\J	16b\	.
.	16a\JJ)	.
2e\	(16b\LL	.
.	16cc\	.
.	16dd\	.
.	16cc\JJ	.
.	16ee\LL	.
.	16dd\	.
.	16cc\	.
.	16b\JJ)	.
=83	=83	=83
4.A\	(16cc\LL	.
.	16b\	.
.	16cc\	.
.	16ee\JJ	.
.	16dd\LL	.
.	16cc\	.
8c\	16b\	.
.	16a\JJ)	.
4e\	2b\	.
4d\	.	.
!!LO:LB:g=original
=84	=84	=84
4c\	(16ee\LL	.
.	16dd\	.
.	16cc\	.
.	16b\JJ	.
(16c\LL	4a\)	.
16d\	.	.
16e\	.	.
16c\JJ)	.	.
4d\	(16b\LL	.
.	16a\	.
.	16b\	.
.	16cc\JJ	.
(16B\LL	4dd\)	.
16c\	.	.
16d\	.	.
16B\JJ	.	.
=85	=85	=85
2e\)	(16cc\LL	.
.	16dd\	.
.	16ee\	.
.	16cc\JJ	.
.	16b\LL	.
.	16cc\	.
.	16dd\	.
.	16b\JJ	.
2A\	2a/)	.
!!LO:LB:g=original
=86:|!|:	=86:|!|:	=86:|!|:
*>N	*>N	*
8c\L	(16ee\LL	.
.	16dd\	.
8d\	16cc\	.
.	16b\JJ	.
8c\	16a\LL	.
.	16b\	.
8A\J	16cc\)	.
.	16a\JJ	.
4B\	(16dd\LL	.
.	16ee\	.
.	16dd\	.
.	16cc\JJ	.
8d\L	16b\LL	.
.	16cc\	.
8B\J	16dd\	.
.	16b\JJ)	.
=87	=87	=87
4.A\	(16cc\LL	.
.	16dd\	.
.	16cc\	.
.	16b\JJ	.
.	16dd\LL	.
.	16cc\	.
8c\	16b\	.
.	16a\JJ)	.
8e\L	8r	.
8d\	8b\L	.
8c\	8cc\	.
8B\J	8dd\J	.
!!LO:LB:g=original
=88	=88	=88
8c\L	(16ee\LL	.
.	16dd\	.
8e\	16cc\	.
.	16b\JJ	.
8c\	16a\LL	.
.	16b\	.
8A\J	16cc\	.
.	16a\JJ	.
4B\	16dd\LL	.
.	16ee\	.
.	16dd\	.
.	16cc\JJ	.
8d\L	16b\LL	.
.	16cc\	.
8B\J	16dd\	.
.	16b\JJ)	.
=89	=89	=89
4.A\	(16cc\LL	.
.	16a\	.
.	16b\	.
.	16cc\JJ	.
.	16dd\LL	.
.	16cc\	.
8c\	16b\	.
.	16a\JJ)	.
4e\	8b\L	.
.	[8ee\J	.
4r	16ee\LL]	.
.	16dd\	.
.	16cc\	.
.	16b\JJ	.
!!LO:LB:g=original
=90	=90	=90
4c\	(16a\LL	.
.	16b\	.
.	16cc\	.
.	16b\JJ	.
8A\L	16dd\LL	.
.	16cc\	.
8c\J	16b\	.
.	16a\JJ)	.
2e\	(16b\LL	.
.	16cc\	.
.	16dd\	.
.	16cc\JJ	.
.	16ee\LL	.
.	16dd\	.
.	16cc\	.
.	16b\JJ)	.
=91	=91	=91
4.A\	(16cc\LL	.
.	16b\	.
.	16cc\	.
.	16ee\JJ	.
.	16dd\LL	.
.	16cc\	.
8c\	16b\	.
.	16a\JJ	.
4e\	2b\)	.
4d\	.	.
!!LO:LB:g=original
=92	=92	=92
4c\	(16ee\LL	.
.	16dd\	.
.	16cc\	.
.	16b\JJ	.
(16c\LL	4a\)	.
16d\	.	.
16e\	.	.
16c\JJ)	.	.
4d\	(16b\LL	.
.	16a\	.
.	16b\	.
.	16cc\JJ	.
(16B\LL	4dd\)	.
16c\	.	.
16d\	.	.
16B\JJ	.	.
=93	=93	=93
2e\)	(16cc\LL	.
.	16dd\	.
.	16ee\	.
.	16cc\JJ	.
.	16b\LL	.
.	16cc\	.
.	16dd\	.
.	16b\JJ	.
2A\	2a/)	.
!!LO:PB:g=original
=94:|!	=94:|!	=94:|!
*>O	*>O	*
*M3/4	*M3/4	*
4A\	8cc|\L	.
.	(16cc\L	.
.	16b\JJ)	.
4c\	8a\L	.
.	8b\	.
4A\	8cc\	.
.	8a\J	.
=95	=95	=95
[4e\	8b'\L	.
.	(16dd\L	.
.	16cc\JJ)	.
8e\L]	4b\	.
8d\	.	.
8c\	4r	.
8B\J	.	.
=96	=96	=96
4c\	8a'\L	.
.	(16ee\L	.
.	16dd\JJ)	.
4A\	8cc\L	.
.	8a\	.
8r	8dd\	.
8d#X\	8cc\J	.
=97	=97	=97
2.e\	(16cc\LL	.
.	16b\	.
.	16dd\	.
.	16cc\JJ	.
.	8b\L	.
.	[8ee\J)	.
.	16ee\LL]	.
.	16dd\	.
.	16cc\	.
.	16b\JJ	.
!!LO:LB:g=original
=98	=98	=98
8c'\L	8a\L	.
(16A\L	(16cc\L	.
16B\JJ	16b\JJ)	.
4c\)	8a\L	.
.	8ee\	.
8A\L	8cc\	.
8c\J	8a\J	.
=99	=99	=99
8d\L	8b'\L	.
(16B\L	(16dd\L	.
16c\JJ	16cc\JJ)	.
4d\)	8b\L	.
.	8cc\	.
8B\L	8dd\	.
8d\J	8b\J	.
=100	=100	=100
2e\	8a|\L	.
.	(16ee\L	.
.	16dd\JJ)	.
.	8cc\L	.
.	8a\	.
8e\L	8cc\	.
8d\J	8b\J	.
=101	=101	=101
(>(>2A\ 2d	(2b^/	.
8A\) 8c)	8a/)	.
8r	8r	.
!!LO:LB:g=original
=102:|!|:	=102:|!|:	=102:|!|:
*>P	*>P	*>P
*^	*	*
8c/L	[2A\	8ee|\L	.
16c/L	.	(16ee\L	.
16d/JJ	.	16dd\JJ	.
4e/	.	(8cc\L)	.
.	.	8dd\	.
8c/L	4A\]	8ee\	.
8e/J	.	8cc\J)	.
*v	*v	*	*
=103	=103	=103
4B\	8dd'\L	.
.	(16dd\L	.
.	16cc\JJ)	.
4e\	4b\	.
4r	4r	.
=104	=104	=104
8A'\L	8cc'\L	.
(16A\L	(16cc\L	.
16B\JJ)	16b\JJ)	.
4c\	8a'\L	.
.	(8ee\	.
8r	8dd\	.
8d#X\	8cc\J)	.
=105	=105	=105
[2e\	(16cc\LL	.
.	16b\	.
.	16dd\	.
.	16cc\JJ)	.
.	8b\L	.
.	8b\J	.
16e\LL]	4b\	.
16d\	.	.
16c\	.	.
16B\JJ	.	.
!!LO:LB:g=original
=106	=106	=106
8A|\L	8ee|\L	.
(16c\L	(16ee\L	.
16B\JJ)	16dd\JJ)	.
8A|\L	8cc|\L	.
(8c\	(8ee\	.
8B\	8dd\	.
8A\J)	8cc\J)	.
=107	=107	=107
4B\	8dd~\L	.
.	16dd\L	.
.	(16cc\JJ	.
4e\	4b\)	.
4r	4r	.
=108	=108	=108
8c|\L	8cc'\L	.
(16c\L	(16cc\L	.
16B\JJ)	16b\JJ)	.
(8A\L	(8a\L	.
8B\	8b\	.
8c\	8cc\	.
8A\J)	8a\J)	.
=109	=109	=109
4e\	8ee'\L	.
.	8ee'\	.
4r	8ee'\	.
.	8ee'\J	.
4r	(16ee\LL	.
.	16dd\	.
.	16cc\	.
.	16b\JJ)	.
!!LO:LB:g=original
=110	=110	=110
4A\	8cc'\L	.
.	(16cc\L	.
.	16b\JJ)	.
4c\	(8a\L	.
.	8b\	.
4A\	8cc\	.
.	8a\J)	.
=111	=111	=111
[4e\	8b'\L	.
.	(16dd\L	.
.	16cc\JJ)	.
8e\L]	4b\	.
8d\	.	.
8c\	4r	.
8B\J	.	.
=112	=112	=112
4c\	8a|\L	.
.	(16ee\L	.
.	16dd\JJ)	.
4A\	(8cc\L	.
.	8a\	.
8r	8dd\	.
8d#X\	8cc\J)	.
=113	=113	=113
!	!	!LO:HP:a
2.e\	(16cc\LL	>
.	16b\	.
.	16dd\	]
.	16cc\JJ)	.
.	8b\L	.
.	[8ee\J	.
.	16ee\LL]	.
.	16dd\	.
.	16cc\	.
.	16b\JJ	.
!!LO:LB:g=original
=114	=114	=114
8c'\L	8a'\L	.
(16A\L	(16cc\L	.
16B\JJ)	16b\JJ)	.
4c'\	(8a\L	.
.	8ee\	.
8A\L	8cc\	.
8c\J	8a\J)	.
=115	=115	=115
8d\L	8b'\L	.
(16B\L	(16dd\L	.
16c\JJ)	16cc\JJ	.
4d\	(8b\L)	.
.	8cc\	.
8B\L	8dd\	.
8d\J	8b\J)	.
=116	=116	=116
[2e\	8a'\L	.
.	(16ee\L	.
.	16dd\JJ)	.
.	(8cc\L	.
.	8a\	.
8e\L]	8cc\	.
8d\J	8b\J)	.
=117	=117	=117
(2A\ 2d	(>2b^/	.
8A\) 8c	8a/)	.
8r	8r	.
!!LO:PB:g=original
=118:|!	=118:|!	=118:|!
*>Q	*>Q	*
*M2/2	*M2/2	*
*met(c|)	*met(c|)	*
!	!LO:TX:t=P:problem=brak metrum	!
1r	(2ee\	.
.	2cc\	.
=119	=119	=119
1r	2ddsS\	.
.	2b\)	.
=120	=120	=120
!	!	!LO:DY:rj
2e\	2cc\	p
2c\	2a/	.
=121	=121	=121
2dsS\	2b\	.
2B\	2r	.
=122	=122	=122
2c\	(2ee\	f
2A\	2cc\	.
!!LO:LB:g=original
=123	=123	=123
2B\	2ddsS\	.
2r	2b\)	.
=124	=124	=124
!	!	!LO:DY:b=2:rj
(2A\	(2cc\	f
2c\	2a/	.
=125	=125	=125
2BsS\	2b\)	.
2d\)	2r	.
=126	=126	=126
2c\	(2a\	.
2A\	2cc\	.
=127	=127	=127
[1e	2b\	.
.	2dd\	.
=128	=128	=128
2e\]	2cc\	.
2r	2a/)	.
!!LO:LB:g=original
=129	=129	=129
1r	[1ee	.
=130	=130	=130
!	!	!LO:DY:b=2:rj
2c\	2ee\]	f
2A\	2a/	p
=131	=131	=131
(1d^<	(2b\	.
.	4cc\	.
.	4dd\	.
=132	=132	=132
!LO:TX:a:t=smorz.	!	!
2e\)	2cc\)	.
2d\	2bt\	.
=133	=133	=133
2c\	1a	.
2A\	.	.
!!LO:PB:g=original
=134:|!	=134:|!	=134:|!
*>R	*>R	*
*M3/4	*M3/4	*
!	!LO:TX:a:i:t=Adagio espresione	!
!	!LO:TX:a:t=No 10.	!
4A\	8cc'\L	f
.	(16cc\L	.
.	16b\JJ)	.
8c'\L	8a'\L	.
(8A\	(8cc^<\	.
8B\	8b\	.
8c\J)	8a\J)	.
=135	=135	=135
2.d\	8b|\L	<
.	(16dd\L	.
.	16cc\JJ)	.
.	8b\L	.
.	8b\J	.
.	4b\	[[
=136	=136	=136
!	!	!LO:DY:rj
8c\L	8a|\L	f
16e\L	(16cc\L	.
16d\JJ	16b\JJ)	.
4c\	8a|\L	.
.	(8cc\ 8ee	>
8A\L	8b\ 8dd	.
8c\J	8a\J) 8cc	]
!!LO:LB:g=original
=137	=137	=137
8d#X\L	(16cc\LL	.
.	16b\	.
[8e\J	16dd\	<
.	16cc\JJ)	.
4e\]	8b\L	.
.	8b\J	.
4d#\	4b\	[[
=138	=138	=138
!	!	!LO:DY:rj
8c'\L	8a'/L	f
(16A\L	(16cc/L	.
16B\JJ)	16b/JJ)	.
8c'\L	8a'/L	.
!	!	!LO:DY:rj
(8A\	(8cc/	p
8B\	8b/	.
8c\J)	8a/J)	.
=139	=139	=139
!	!	!LO:DY:rj
8d\L	8b|\L	f
(16B\L	(16dd\L	.
16c\JJ)	16cc\JJ)	.
8d|\L	8b|\L	.
!	!	!LO:DY:rj
(8B\	(8dd\	p
8c\	8cc\	.
8d\J)	8b\J)	.
=140	=140	=140
(2e\	8cc|\L	.
.	(16ee\L	.
.	16dd\JJ)	.
.	(8cc\L	.
.	8a\	.
8e\L	8cc\	.
8d\J)	8b\J)	.
!!LO:LB:g=original
=141	=141	=141
(2d\	(2b^/	.
8c\)	8a/)	.
8r	8r	.
=142:|!|:	=142:|!|:	=142:|!|:
*>S	*>S	*
!	!	!LO:DY:rj
8c'\L	8ee|\L	f
(16c\L	(16ee\L	.
16B\JJ)	16dd\JJ)	.
8A|\L	8cc|\L	.
!	!	!LO:DY:rj
(8c\	(8ee\	p
8B\	8dd\	.
8A\J)	8cc\J)	.
=143	=143	=143
4B\	8dd|\L	f
.	(16dd\L	.
.	16cc\JJ)	.
4e\	8b|\L	.
.	(8b\ 8dd	p
4r	8a\ 8cc	.
.	8b\J)	.
=144	=144	=144
4A\	8cc|\L	f
.	(16cc\L	.
.	16b\JJ)	.
4c\	8a|\L	p
.	(8ee\	>
4A\	8cc\	]
.	8a\J)	.
!!LO:LB:g=original
=145	=145	=145
!	!	!LO:DY:rj
[2e\	(16cc\LL	f
.	16b\	.
.	16dd\	.
.	16cc\JJ)	.
.	8b\L	.
.	8b\J	.
16e\LL]	4b\	.
16d\	.	.
16c\	.	.
16B\JJ	.	.
=146	=146	=146
!	!	!LO:DY:rj
8A'\L	8ee'\L	f
(16d\L	(16ee\L	.
16c\JJ)	16dd\JJ)	.
8A'\L	8cc|\L	.
!	!	!LO:DY:rj
(8c\	(8ee\	p >
8B\	8dd\	]
8A\J)	8cc\J)	.
=147	=147	=147
!	!	!LO:DY:rj
4B\	8dd|\L	f
.	16dd\L	.
.	16cc\JJ	.
4e\	8b'\L	p
.	(8b\ 8dd	>
4r	8a\ 8cc	]
.	8b\J)	.
=148	=148	=148
!	!	!LO:DY:rj
4A\	8cc'\L	f
.	(16cc\L	.
.	16b\JJ)	.
4c\	8a\L	p
.	(8ee\	>
4A\	8cc\	.
.	8a\J)	]]
!!LO:LB:g=original
=149	=149	=149
2.e\	(4cc\	.
.	2b\)	.
=150	=150	=150
4A\	8cc'\L	.
.	(16cc\L	.
.	16b\JJ)	.
8c|\L	8a'\L	.
(8A\	(8cc\	.
8B\	8b\	.
8c\J)	8a\J)	.
=151	=151	=151
2.d\	8b'\L	.
.	(16dd\L	.
.	16cc\JJ)	.
.	8b\L	.
.	8b\J	.
.	4b\	.
=152	=152	=152
8c\L	8a|\L	.
16e\L	(16cc\L	.
16d\JJ	16b\JJ)	.
4c\	8a'\L	.
.	(8cc\ 8ee	.
8r	8b\ 8dd	.
8d#X\	8a\J) 8cc	.
=153	=153	=153
8d#X\L	(16cc\LL	.
.	16b\	.
[8e\J	16dd\	.
.	16cc\JJ)	.
4e\]	8b\L	.
.	8b\J	.
4dn\	4b\	.
!!LO:LB:g=original
=154	=154	=154
!	!	!LO:DY:rj
8c'\L	8a'>/L	f
(16A\L	(>16cc/L	.
16B\JJ)	16b/JJ)	.
8c'\L	8a'>/L	p >
(8A\	(>8cc/	.
8B\	8b/	]
8c\J)	8a/J)	.
=155	=155	=155
!	!	!LO:DY:rj
8d'\L	8b'>/L	f
(16B\L	(>16dd/L	.
16c\JJ)	16cc/JJ)	.
!	!	!LO:DY:rj
8d'\L	8b'>/L	p
(8B\	(>8dd/	>
8c\	8cc/	]
8d\J)	8b/J)	.
=156	=156	=156
[2e\	8cc'\L	.
.	(16ee\L	.
.	16dd\JJ)	.
.	(8cc\L	.
.	8a\	.
8e\L]	8cc\	.
8d\J	8b\J)	.
=157	=157	=157
(2d\	(>2b/	.
8c\)	8a/)	.
8r	8r	.
!!LO:PB:g=original
=158:|!	=158:|!	=158:|!
*>T	*>T	*
*M3/4	*M3/4	*
!	!LO:TX:a:i:t=Polacca Allegro.	!
!	!LO:TX:t=No 11.	!LO:DY:rj
8A'\L	8cc'\L	p
(16A\L	(16cc\L	.
16B\JJ)	16b\JJ)	.
8c'\L	8a'\L	.
(8A\	(8cc\	>
8B\	8b\	.
8c\J)	8a\J)	]
=159	=159	=159
8d'\L	8b'\L	.
(16B\L	(16dd\L	.
16c\JJ)	16cc\JJ)	.
!	!	!LO:DY:rj
8d\L	8b\L	f
8d\J	8b\J	.
4d\	4b^<\	.
=160	=160	=160
!	!	!LO:DY:rj
8c'\L	8a'\L	p
(16e\L	(16cc\L	.
16d\JJ)	16b\JJ)	.
8c'\L	8a'\L	.
(8c\	(8ee\	>
8B\	8dd\	.
8A\J)	8cc\J)	]
=161	=161	=161
2.e\	(16cc\LL	.
.	16b\	.
.	16dd\	.
.	16cc\JJ)	f
.	8b\L	.
.	8b\J	.
.	4b^<\	.
!!LO:LB:g=original
=162	=162	=162
!	!	!LO:DY:rj
8c'\L	8a'/L	p
(16A\L	(16cc/L	.
16B\JJ)	16b/JJ)	.
8c'\L	8a'/L	.
(8A\	(8cc/	>
8B\	8b/	]
8c\J)	8a/J)	.
=163	=163	=163
8d'\L	8b'\L	.
16B\L	(16dd\L	.
16c\JJ	16cc\JJ)	.
8d\L	8b'\L	.
8B\	(8dd\	.
8c\	8cc\	.
8d\J	8b\J)	.
=164	=164	=164
[2e\	8cc'\L	.
.	(16ee\L	.
.	16dd\JJ	.
.	8cc\L)	.
.	8a\	.
8e\L]	8cc\	.
8d\J	8b\J	.
=165	=165	=165
(2A\ 2d	(>2b^/	.
8A\) 8c	8a/)	.
8r	8r	.
!!LO:LB:g=original
=166:|!|:	=166:|!|:	=166:|!|:
*>U	*>U	*
8c'\L	8ee'\L	f
16c\L	(16ee\L	.
16B\JJ	16dd\JJ)	.
8A\L	8cc\L	p
8c\	(8ee\	.
8B\	8dd\	.
8A\J	8cc\J)	.
=167	=167	=167
4B\	8dd'\L	f
.	(16dd\L	.
.	16cc\JJ)	.
!	!	!LO:DY:rj
4e\	4b\	p
4r	4r	.
=168	=168	=168
4A\	8cc'\L	.
!	!	!LO:DY:rj
.	(16cc\L	f
.	16b\JJ)	.
4c\	8a'\L	.
!	!	!LO:DY:rj
.	(8ee\	p
4A\	8cc\	.
.	8a\J)	.
=169	=169	=169
[2e\	(16cc\LL	.
.	16b\	.
.	16dd\	.
.	16cc\JJ	.
.	8b\L)	.
.	8b\J	.
(16e\LL]	4b\	.
16d\	.	.
16c\	.	.
16B\JJ)	.	.
!!LO:LB:g=original
=170	=170	=170
!	!	!LO:DY:rj
8A'\L	8ee'\L	f
(16c\L	(16ee\L	.
16B\JJ)	16dd\JJ)	.
8A'\L	8cc'\L	.
!	!	!LO:DY:rj
(8c\	(8ee\	p
8B\	8dd\	.
8A\J)	8cc\J)	.
=171	=171	=171
4B\	8dd'\L	f
.	(16dd\L	.
.	16cc\JJ)	.
!	!	!LO:DY:rj
4e\	4b\	p
4r	4r	.
=172	=172	=172
4A\	8cc'\L	f
.	(16cc\L	.
.	16b\JJ)	.
4c\	8a'\L	.
.	(8ee\	p
4A\	8cc\	.
.	8a\J)	.
=173	=173	=173
2.e\	4cc\	.
.	2b\	>]
!!LO:LB:g=original
=174	=174	=174
8A\L	8cc'\L	p
16A\L	(16cc\L	.
16B\JJ	16b\JJ)	.
8c\L	8a'\L	.
8A\	(8cc\	.
8B\	8b\	.
8c\J	8a\J)	.
=175	=175	=175
8d\L	8b'\L	.
16B\L	(16dd\L	.
16c\JJ	16cc\JJ)	.
8d\L	8b\L	.
8d\J	8b\J	.
4d\	4b^<\	.
=176	=176	=176
8c\L	8a~\L	p
16e\L	(16cc\L	.
16d\JJ	16b\JJ)	.
8c\L	8a'\L	.
8c\	(8ee\	.
8B\	8dd\	.
8A\J	8cc\J)	.
=177	=177	=177
2.e\	(16cc\LL	.
.	16b\	.
.	16dd\	.
.	16cc\JJ)	.
!	!	!LO:DY:rj
.	8b\L	f
.	8b\J	.
.	4b^<\	.
!!LO:LB:g=original
=178	=178	=178
!	!	!LO:DY:rj
8c'\L	8a'/L	p
16A\L	16cc/L	.
16B\JJ	16b/JJ	.
8c'\L	8a'/L	.
(8A\	(8cc/	>
8B\	8b/	.
8c\J)	8a/J)	]]
=179	=179	=179
8d'\L	8b'\L	.
(16B\L	(16dd\L	.
16c\JJ)	16cc\JJ)	.
8d'\L	8b'\L	.
(8B\	(8dd\	.
8c\	8cc\	.
8d\J)	8b\J)	.
=180	=180	=180
[2e\	8cc\L	.
.	16ee\L	.
.	16dd\JJ	.
.	8cc\L	.
.	8a\	.
8e\L]	8cc\	.
8d\J	8b\J	.
=181	=181	=181
(2A^<\ 2d	2b^>/	.
8A\) 8c	8a/	.
8r	8r	.
!!LO:PB:g=original
=182:|!	=182:|!	=182:|!
*>V	*>V	*
*k[f#c#g#]	*k[f#c#g#]	*
*M2/2	*M2/2	*
*met(c|)	*met(c|)	*
!	!LO:TX:a:i:t=Moderato,	!
!	!LO:TX:t=P:problem=znaki przykluczowe zawsze tylko w pierwszym systemie kolejnych wariacji	!
1A	1a	.
=183||	=183||	=183||
*>W	*>W	*
*M2/2	*M2/2	*
*met(c|)	*met(c|)	*
2A\	4a/	p
.	4a/	.
!	!	!LO:HP:t=cresc
2G#\	4b/	<
.	4b/	.
=184	=184	=184
*	*^	*
4A\	4cc#/	4a\	<
4Gn\	4cc#sS/	4a\	[
!	!	!	!LO:DY:rj
2F#\	2dd/	2a\	f
!!LO:LB:g=original
=185	=185	=185	=185
4G#X\	8.dd/L	2b\	p
*	*tuplet	*	*
!	!LO:TUP:a:problem=klamra łukowa	!	!
.	48ee/L	.	.
.	48dd/	.	.
.	48cc#/J	.	.
4E\	8dd/	.	.
.	8ee/J	.	.
4.A\	8dd/L	4a\	.
.	8cc#/	.	.
.	8b/	4ryy	.
8D\	8a/J	.	.
=186	=186	=186	=186
4E\	4cc#/	4a\	.
4E\	4b/	4b\	.
2A\	2a/	2a\	.
*	*v	*v	*
=187:|!	=187:|!	=187:|!
*>X	*>X	*
2r	4ee\	.
.	4ee\	.
4A\	2cc#^<\	.
4A\	.	.
=188	=188	=188
2r	4ee\	.
.	4ee\	.
4G#\	2b^<\	.
4G#\	.	.
!!LO:LB:g=original
=189	=189	=189
2r	4ee\	.
.	4ee\	.
4F#\ 4A	4a^</	.
4F#\ 4A	4a/	.
=190	=190	=190
2F#\ 2A	(8a\L	.
.	8b\	.
.	8cc#\	.
.	8dd#X\J)	.
2E\ 2G#	2ee^<\	.
=191	=191	=191
2r	4ee\	.
.	4ee\	.
4A\	2ccn\	.
4A\	.	.
=192	=192	=192
2r	4ee\	.
.	4ee\	.
4Gn\	2b\	.
4G\	.	.
!!LO:LB:g=original
=193	=193	=193
2r	4ee\	.
.	4ee\	.
4Fn\ 4A	4a/	.
4F\ 4A	4a/	pp
=194	=194	=194
!	!LO:TX:b:t=calando	!
2F#\ 2A	(8a/L	.
.	8b/	.
.	8ccn/	.
.	8a/J)	.
2E\ 2G#	2ee;\	.
=195	=195	=195
!	!	!LO:DY:rj
2A\	4a/	p <
.	4a/	.
2G#\	4b/	.
.	4b/	.
=196	=196	=196
*	*^	*
4A\	4cc#/	4a\	.
4Gn\	4cc#sS/	4a\	[
2F#\	2dd/	2a\	.
!!LO:LB:g=original
=197	=197	=197	=197
4G#\	4.ddS/	2b\	.
4E\	.	.	.
.	8ee/	.	.
4.A\	8dd/L	4a\	.
.	8cc#/	.	.
.	8b/	4ryy	.
8D\	8a/J	.	.
*	*v	*v	*
=198	=198	=198
4E\	4cc#\	.
4E\	4bT\	.
2A\	2a/	.
!!LO:PB:g=original
=199:|!	=199:|!	=199:|!
*>Y	*>Y	*
*k[f#c#g#]	*k[f#c#g#]	*
*M2/2	*M2/2	*
*met(c|)	*met(c|)	*
*	*	*^
!LO:TX:b:i:t=Legato,	!LO:TX:a:i:t=Moderato,	!LO:DY:rj	!
(8A\L	4a/	p	.
!	!	!LO:HP:a	!
8G#\	.	<	.
8A\	4a/	.	.
8E\J	.	.	.
8G#\L	4b\	.	.
8F#\	.	.	.
!	!	!	!LO:HP:t=cresc&colon;
8G#\	4b\	.	<
8E\J)	.	.	.
=200	=200	=200	=200
*	*^	*	*
(8A\L	4cc#/	4a\	.	.
8G#\	.	.	.	.
8A\	4cc#sS/	4a\	[	.
8Gn\J	.	.	.	.
8F#\L	2dd/	2a\	f	.
8E\	.	.	.	.
8F#\	.	.	.	.
8D\J)	.	.	.	.
*	*	*	*v	*v
=201	=201	=201	=201
(8G#\L	4.ddsS/	2b\	p
8E\	.	.	.
8F#\	.	.	.
8G#\J	8ee/	.	.
4A\)	8dd/L	4a\	.
.	8cc#/	.	.
4D\	8b/	4ryy	.
.	8a/J	.	.
!!LO:LB:g=original
=202	=202	=202	=202
(8E\L	4cc#/	4a\	.
8A\	.	.	.
8E\	4bT/	4ryy	.
8G#\J	.	.	.
8A\L	2a/	2ryy	.
8E\	.	.	.
8F#\	.	.	.
8G#\J)	.	.	.
*	*v	*v	*
=203:|!|:	=203:|!|:	=203:|!|:
*>Z	*>Z	*
!	!	!LO:DY:rj
(8A\L	4ee\	p
8E\	.	.
8A\	4ee\	.
8E\J	.	.
8A\L	2cc#^<\	.
8E\	.	.
8A\	.	.
8E\J)	.	.
=204	=204	=204
(8A\L	4ee\	.
8E\	.	.
8A\	4ee\	.
8E\J	.	.
8G#\L	2b^<\	.
8E\	.	.
8G#\	.	.
8E\J)	.	.
=205	=205	=205
(8G#\L	4ee\	.
8E\	.	.
8G#\	4ee\	.
8E\J	.	.
8F#\L	4a^/	.
8A\	.	.
8F#\	4a/	.
8A\J)	.	.
!!LO:LB:g=original
=206	=206	=206
(8F#\L	(8a\L	.
8A\	8b\	.
8F#\	8cc#\	.
8A\J	8dd#X\J	.
8E\L	2ee\)	.
8G#\	.	.
8E\	.	.
8G#\J)	.	.
=207	=207	=207
!	!	!LO:DY:rj
(8A\L	4ee\	p
8E\	.	.
8A\	4ee\	.
8E\J	.	.
8A\L	2ccn^<\	.
8E\	.	.
8A\	.	.
8E\J)	.	.
=208	=208	=208
(8A\L	4ee\	.
8E\	.	.
8A\	4ee\	.
8E\J	.	.
8Gn\L	2b\	.
8E\	.	.
8G\	.	.
8E\J)	.	.
=209	=209	=209
(8Gn\L	4ee\	.
8E\	.	.
8G\	4ee\	.
8E\J	.	.
8Fn\L	4a/	.
8A\	.	.
8F\	4a/	.
8A\J)	.	.
!!LO:LB:g=original
=210	=210	=210
(8Fn\L	(<8a/L	.
!	!LO:TX:b:i:t=calando	!
8A\	8b/	.
8F\	8ccn/	.
8A\J	8a/J	.
8E\L	2ee;\)	.
8F#X\	.	.
8G#X\)	.	.
8E;\J	.	.
=211	=211	=211
(8A\L	4a/	<
8E\	.	.
8A\	4a/	.
8E\J	.	.
8G#\L	4b/	.
8E\	.	.
8G#\	4b/	.
8E\J)	.	.
=212	=212	=212
(8A\L	4a\ 4cc#	[
8G#\	.	.
8A\	4a\ 4cc#	.
8Gn\J	.	f
8F#\L	2a\ 2dd	.
8E\	.	.
8F#\	.	.
8D\J	.	.
=213	=213	=213
*	*^	*
(8G#X\L)	4.dd/	2b\	.
8E\	.	.	.
8F#\	.	.	.
8G#\J)	8ee/	.	.
2A\	8dd/L	4a\	.
.	8cc#/	.	.
.	8b/	4ryy	.
.	8a/J	.	.
!!LO:LB:g=original
=214	=214	=214	=214
!LO:TX:t=1.	!LO:TX:t=1.	!LO:TX:t=1.	!
*>Z1	*>Z1	*Z1	*
(8E\L	4cc#/	4a\	.
8A\	.	.	.
8E\	4bT/	4ryy	.
8G#\J	.	.	.
8A\L	2a/	2ryy	.
8E\	.	.	.
8F#\	.	.	.
8G#\J)	.	.	.
=215:|!	=215:|!	=215:|!	=215:|!
*>Z2	*>Z2	*Z2	*
(8E\L	4cc#/	4a\	.
8A\	.	.	.
8E\	4bT/	4ryy	.
8G#\J	.	.	.
2A\)	2a/	2ryy	.
*	*v	*v	*
!!LO:PB:g=original
=216||	=216||	=216||
*>a	*>a	*
*k[f#c#g#]	*k[f#c#g#]	*
*M2/2	*M2/2	*
*met(c|)	*met(c|)	*
!	!LO:TX:b:i:t=dolce	!
!	!LO:TX:a:i:t=Moderato,	!
(2A\	(>4a/	.
.	4cc#/)	.
8G#\L)	4ee\	.
(8E\	.	.
8F#\	4ee\	.
8G#\J	.	.
=217	=217	=217
(2A\)	(8dd\L	.
.	8cc#\	.
.	8b\	.
.	8cc#\J)	.
8A\L	2a/	.
8B\	.	.
8A\	.	.
8Gn\J	.	.
=218	=218	=218
4F#\)	(8dd\L	.
.	8a\	.
4G#X\	8dd\	.
.	8b\J	.
2A\	8cc#\L	.
.	8ee\	.
.	8a\	.
.	8cc#\J)	.
!!LO:LB:g=original
=219	=219	=219
4E\ 4G#	4b\	.
[>4E\ [>4G#	4ee\	.
8E\L] 8G#]	4ee\	.
8E\	.	.
8F#\	4r	.
8G#\J	.	.
=220	=220	=220
(2A\	4a/	.
.	4cc#\	.
8G#\L)	4ee\	.
8E\	.	.
8F#\	4ee\	.
8G#\J	.	.
=221	=221	=221
[2A\	8dd\L	.
.	8cc#\	.
.	8b\	.
.	8cc#\J	.
4A\]	4.a/	.
4A\	.	.
.	8cc#\	.
=222	=222	=222
4G#\	(8b\L	.
.	8ee\	.
4A\	8cc#\	.
.	8ee\J	.
4B\	8b\L	.
.	8ee\	.
4A\	8b\	.
.	8dd#X\J	.
!!LO:LB:g=original
=223	=223	=223
(>[>2E\ 2A	(2dd#X\)	>
8E\]) 8G#	8ee\)	.
8r	8r	]
4r	4r	.
=224:|!|:	=224:|!|:	=224:|!|:
*>b	*>b	*
[2A\	4ee\	.
.	4ee\	.
8A\L]	4cc#\	.
8F#\	.	.
8G#\	4cc#\	.
8A\J	.	.
=225	=225	=225
[2B\	4dd\	.
.	2dd\	.
8B\L]	.	.
8An\	.	.
8G#\	4dd\	.
8F#\J	.	.
=226	=226	=226
[2G#\	4dd\	.
.	4dd\	.
8G#\L]	4b\	.
8E\	.	.
8F#\	4b\	.
8G#\J	.	.
!!LO:LB:g=original
=227	=227	=227
[2A\	4cc#\	.
.	2cc#\	.
8A\L]	.	.
8E\	.	.
8A\	4ee\	.
8E\J	.	.
=228	=228	=228
(8G#\L	4dd\	.
8B\	.	.
8E\	4dd\	.
8G#\J)	.	.
2A\	(8cc#\L	.
.	8a\	.
.	8ee\	.
.	8cc#\J)	.
=229	=229	=229
(8G#\L	2b\	.
8B\	.	.
8E\	.	.
8G#\J)	.	.
2A\	(8cc#\L	.
.	8ee\	.
.	8a\	.
.	8cc#\J)	.
=230	=230	=230
(8G#\L	4dd\	.
8E\	.	.
8B\	4dd\	.
8G#\J)	.	.
2A\	(8cc#\L	.
.	8a\	.
.	8ee\	.
.	8cc#\J)	.
!!LO:LB:g=original
=231	=231	=231
(8G#\L	2b\	.
8E\	.	.
8B\	.	.
8G#\J)	.	.
2A\	(8cc#\L	.
.	8ee\	.
.	8a\	.
.	8cc#\J)	.
=232	=232	=232
*^	*	*
2G#;/	2E\	2dd;\	.
2r	2ryy	2r	.
*v	*v	*	*
=233	=233	=233
(2A\	4a\	.
.	4cc#\	.
8G#\L)	4ee\	.
8E\	.	.
8F#\	4ee\	.
8G#\J	.	.
=234	=234	=234
[2A\	(8dd\L	.
.	8cc#\	.
.	8b\	.
.	8cc#\J)	.
(8A\L]	2a/	.
8B\	.	.
8A\	.	.
8Gn\J	.	.
=235	=235	=235
4F#\)	(8dd\L	.
.	8b\	.
4G#X\	8dd\	.
.	8b\J	.
2A\	8cc#\L	.
.	8ee\	.
.	8a\	.
.	8cc#\J)	.
!!LO:LB:g=original
=236	=236	=236
4E\ 4G#	4b\	.
[>4E\ [>4G#	4ee\	.
8E\L] 8G#]	4ee\	.
8E\	.	.
8F#\	4r	.
8G#\J	.	.
=237	=237	=237
(2A\	4a\	.
.	4cc#\	.
(8G#\L)	4ee\	.
8E\	.	.
8F#\	4ee\	.
8G#\J	.	.
=238	=238	=238
[2A\)	(8dd\L	.
.	8cc#\	.
.	8b\	.
.	8cc#\J)	.
4A\]	4.a/	.
4A\	.	.
.	8cc#\	.
=239	=239	=239
8A\L	4b\	.
8E\	.	.
8A\	4b\	.
8E\J	.	.
8G#\L	4ee\	.
8E\	.	.
8G#\	4ee\	.
8E\J	.	.
=240	=240	=240
[2A\	4a/	.
.	4cc#/	.
8A\]	8a/	.
8r	8r	.
4r	4r	.
!!LO:PB:g=original
=241:|!	=241:|!	=241:|!
*>c	*>c	*
*k[f#c#g#]	*k[f#c#g#]	*
*M2/2	*M2/2	*
*met(c|)	*met(c|)	*
!	!LO:TX:a:i:t=Allegro moderato,	!LO:DY:rj
8A\L	4a\	f
8E\	.	.
8A\	4cc#\	.
8E\J	.	.
8G#\L	4b\	.
8E\	.	.
8G#\	4ee\	.
8E\J	.	.
=242	=242	=242
8A\L	4cc#\	.
8E\	.	.
8A\	2a^\ 2cc#	.
8E\J	.	.
8A\L	.	.
8E\	.	.
8A\	4a\ 4cc#	.
8Gn\J	.	.
=243	=243	=243
8F#\L	4a\ 4dd	.
8A\	.	.
8G#\	4b\ 4dd	.
8B\J	.	.
8A\L	4cc#\	.
8E\	.	.
8A\	4a/	.
8E\J	.	.
!!LO:LB:g=original
=244	=244	=244
8G#\L	4b\	.
8E\	.	.
8G#\	4r	.
8E\J	.	.
8G#\L	2r	.
8E\	.	.
8F#\	.	.
8G#\J	.	.
=245	=245	=245
8A\L	4cc#\	.
8E\	.	.
8A\	4a\	.
8E\J	.	.
8G#\L	4b\	.
8E\	.	.
8G#\	4b\ 4ee	.
8E\J	.	.
=246	=246	=246
*	*^	*
8A\L	4cc#\	4ryy	.
8E\	.	.	.
8A\	2cc#/	2a^\	.
8E\J	.	.	.
8A\L	.	.	.
8E\	.	.	.
8A\	4cc#\	4ryy	.
8E\J	.	.	.
*	*v	*v	*
=247	=247	=247
8G#\L	4b\	.
8E\	.	.
8G#\	2ee^<\	.
8A\J	.	.
8B\L	.	.
8A#X\	.	.
8B\	4dd#X\	.
8An\J	.	.
!!LO:LB:g=original
=248	=248	=248
8A\L	(2dd#X\	rf
8E\	.	.
8B\	.	.
8A\J	.	.
8G#\L	8ee\)	.
8E\	8r	.
8F#\	4r	.
8G#\J	.	.
=249:|!|:	=249:|!|:	=249:|!|:
*>d	*>d	*
8A#X\L	4ee\	.
8F#\	.	.
8A#\	4ee\	.
8F#\J	.	.
8A#\L	4cc#\	.
8F#\	.	.
8A#\	4cc#\	.
8F#\J	.	.
=250	=250	=250
8B\L	4dd\	.
8F#\	.	.
8B\	2dd\	rf
8F#\J	.	.
8B\L	.	.
8F#\	.	.
8B\	4dd\	.
8F#\J	.	.
!!LO:LB:g=original
=251	=251	=251
8G#\L	4dd\	.
8E\	.	.
8G#\	4dd\	.
8E\J	.	.
8G#\L	4b\	.
8E\	.	.
8G#\	4b\	.
8E\J	.	.
=252	=252	=252
8A\L	4cc#\	.
8E\	.	.
8A\	2cc#\	.
8E\J	.	.
8A\L	.	.
8E\	.	.
8A\	4cc#\ 4ee	.
8E\J	.	.
=253	=253	=253
8G#\L	8b|\ 8dd	.
8E\	8r	.
8G#\	8b|\ 8dd	.
8E\J	8r	.
8A\L	8a|\ 8cc#	.
8E\	8r	.
8A\	8a|\ 8cc#	.
8E\J	8r	.
!!LO:LB:g=original
=254	=254	=254
8G#\L	4b\	.
8E\	.	.
8G#\	4r	.
8E\J	.	.
8A\L	8a\ 8cc#	.
8E\	8r	.
8A\	8cc#\ 8ee	.
8E\J	8r	.
=255	=255	=255
8G#\L	8b\ 8dd	.
8E\	8r	.
8G#\	8b\ 8dd	.
8E\J	8r	.
8A\L	8a\ 8cc#	.
8E\	8r	.
8A\	8a\ 8cc#	.
8E\J	8r	.
=256	=256	=256
8G#\L	4b\	.
8E\	.	.
8G#\	4r	.
8E\J	.	.
8A\L	8a\ 8cc#	.
8E\	8r	.
8A\	8cc#\ 8ee	.
8E\J	8r	.
!!LO:LB:g=original
=257	=257	=257
8G#\L	8b\	.
8E\	8r	.
8G#\	4r	.
8E\J	.	.
8A\L	8a\ 8cc#	.
8E\	8r	.
8A\	8cc#\ 8ee	.
8E\J	8r	.
=258	=258	=258
8G#\L	8b\	.
8E\	8r	.
8G#\	4r	.
8E\J	.	.
8A\L	8a\ 8cc#	.
8E\	8r	.
8A\	4r	.
8E\J	.	.
=259	=259	=259
*^	*	*
*	*	*^	*
2G#/	2E\	2dd;/	2b\	.
2r;>	2ryy	2r;>	2ryy	.
*	*	*v	*v	*
*v	*v	*	*
!!LO:PB:g=original
=260	=260	=260
8A\L	4a/	.
8E\	.	.
8A\	4cc#\	.
8E\J	.	.
8G#\L	4b\	.
8E\	.	.
8G#\	4ee\	.
8E\J	.	.
=261	=261	=261
*	*^	*
8A\L	4cc#/	4ryy	.
8E\	.	.	.
8A\	2cc#/	2a\	.
8E\J	.	.	.
8A\L	.	.	.
8E\	.	.	.
8A\	4cc#/	4a\	.
8Gn\J	.	.	.
*	*v	*v	*
=262	=262	=262
8F#\L	4a\ 4dd	.
8A\	.	.
8G#\	4b\ 4dd	.
8B\J	.	.
8A\L	4cc#\	.
8E\	.	.
8A\	4a/	.
8E\J	.	.
!!LO:LB:g=original
=263	=263	=263
8G#\L	4b\	.
8E\	.	.
8G#\	4r	.
8E\J	.	.
8G#\L	2r	.
8E\	.	.
8F#\	.	.
8G#\J	.	.
=264	=264	=264
8A\L	4cc#\	.
8E\	.	.
8A\	4a\	.
8E\J	.	.
8G#\L	4b\	.
8E\	.	.
8G#\	4ee\	.
8E\J	.	.
=265	=265	=265
*	*^	*
8A\L	4cc#\	4ryy	.
8E\	.	.	.
8A\	2cc#/	2a\	.
8E\J	.	.	.
8A\L	.	.	.
8E\	.	.	.
8A\	4cc#\	4ryy	.
8E\J	.	.	.
*	*v	*v	*
!!LO:LB:g=original
=266	=266	=266
8A\L	4b\	.
8E\	.	.
8A\	4b\	.
8E\J	.	.
8G#\L	4b\ 4ee	.
8E\	.	.
8G#\	4b\ 4ee	.
8E\J	.	.
=267	=267	=267
4A\	4a/	.
4A\	4a/ 4cc#	.
4A\	4a/	.
4r	4r	.
!!LO:LB:g=original
=268:|!	=268:|!	=268:|!
*>e	*>e	*
*k[f#c#g#]	*k[f#c#g#]	*
*M2/2	*M2/2	*
*met(c|)	*met(c|)	*
!	!LO:TX:a:i:t=Andante,	!
!	!	!LO:DY:t=p. espressione
2A\	(8a/L	p
.	8cc#/	.
.	8b/	.
.	8a/J	.
4G#\	8b\L	.
.	8cc#\	.
4E\	8dd\	.
!	!LO:TX:b:i:t=Legato,	!
.	8ee\J	.
=269	=269	=269
*^	*	*
2.A\	2.ryy	(8dd\L)	.
.	.	8cc#\	.
.	.	8b\	.
.	.	8cc#\J	.
.	.	8a/L	.
.	.	8cc#/	.
4A/	4Gn\	8b/	.
.	.	8a/J)	.
=270	=270	=270	=270
4A/	4F#\	(8dd\L	.
.	.	8a\	.
4G#X\ 4B	2.ryy	8dd\	.
.	.	8b\J	.
2A\	.	8cc#\L	.
.	.	8a\	.
.	.	8b\	.
.	.	8cc#\J)	.
*v	*v	*	*
!!LO:LB:g=original
=271	=271	=271
4E\ 4G# 4B	8b\L	.
.	8ee\	<
4r	8ee\	.
.	8ee\J	.
2r	8ee\L	.
.	8ee\	.
.	8ee\	.
.	8ee\J	[[
=272	=272	=272
2A\	(8a/L	.
.	8cc#/	.
.	8b/	.
.	8a/J	.
4G#\	8b\L	.
.	8cc#\	.
4E\	8dd\	.
.	8ee\J)	.
=273	=273	=273
2.A\	(8dd\L	.
.	8cc#\	.
.	8b\	.
.	8cc#\J	.
.	8a/L	.
.	8cc#/	.
4A\	8b/	.
.	8a/J)	.
!!LO:LB:g=original
=274	=274	=274
4G#\	(8b\L	.
.	8ee\	.
4A\	8dd#X\	.
.	8cc#\J	.
4B\	8b\L	.
.	8ee\	.
4A\	8b\	.
.	8dd#X\J)	.
=275	=275	=275
(>(>2E\ 2A	(8dd#X\L	.
.	8b\	.
.	8cc#\	.
.	8dd#\J	.
8E\)) 8G#	8ee\)	.
8r	8r	.
!	!LO:TX:b:t=V&colon;S&colon;	!
4r	4r	.
!!LO:PB:g=original
=276:|!|:	=276:|!|:	=276:|!|:
*>f	*>f	*
*k[f#c#g#]	*k[f#c#g#]	*
1F# 1A#X	(8ee^<\L	.
.	8dd\)	.
.	8cc#'\	.
.	8cc#'\J	.
.	(8cc#\L	.
.	8dd\)	.
.	8ee'\	.
.	8ee'\J	.
=277	=277	=277
(4A#X\	(8ee^<\L	.
.	8dd\)	.
8B\)	(8dd'\	.
8r	8dd'\J	.
2r	8dd'\L	.
.	8dd'\	.
.	8dd'\	.
.	8dd'\J)	.
=278	=278	=278
1E 1G#	(8dd^<\L	.
.	8cc#\)	.
.	8b'\	.
.	8b'\J	.
.	(8b\L	.
.	8cc#\)	.
.	8dd|\	.
.	8dd|\J	.
!!LO:PB:g=original
=279	=279	=279
(4G#\	(8dd\L	.
.	8cc#\)	.
8A\)	8cc#'\	.
8r	8cc#'\J	.
2r	8cc#'\L	.
.	8cc#'\	.
.	(8dd\	.
.	8ee\J)	.
=280	=280	=280
*	*^	*
(2G#\	8ee/L	2b^\	.
.	8dd/	.	.
.	8dd/	.	.
.	8dd/J	.	.
2A\)	8dd/L	2a^\	.
.	8cc#/	.	.
.	8cc#/	.	.
.	8cc#/J	.	.
=281	=281	=281	=281
*^	*	*	*
(2G#/	1E	8cc#/L	2ryy	.
.	.	8b/	.	.
.	.	8b/	.	.
.	.	8b/J	.	.
2A/)	.	8cc#/L	2a\	.
.	.	8cc#/	.	.
.	.	8ee/	.	.
.	.	8ee/J	.	.
!!LO:LB:g=original
=282	=282	=282	=282	=282
(2G#/	2E\	8ee/L	2b^\	.
.	.	8dd/	.	.
.	.	8dd/	.	.
.	.	8dd/J	.	.
2A/)	2E\	8dd/L	2a^\	.
.	.	8cc#/	.	.
.	.	8cc#/	.	.
.	.	8cc#/J	.	.
=283	=283	=283	=283	=283
(2G#/	2E\	8ee/L	2b^\	.
.	.	8dd/	.	.
.	.	8dd/	.	.
.	.	8dd/J	.	.
2A/)	2E\	8dd/L	2a^\	.
.	.	8cc#/	.	.
.	.	8cc#/	.	.
.	.	8cc#/J	.	.
*	*	*v	*v	*
=284	=284	=284	=284
(2G#/	2E\	(8b'\L	.
.	.	8b'\	.
.	.	8b'\	.
.	.	8b'\J	.
2A/)	2E\	8a'\L 8cc#	.
.	.	8a'\ 8cc#	.
.	.	8a'\ 8cc#	.
.	.	8a'\J) 8cc#	.
!!LO:LB:g=original
=285	=285	=285	=285
*	*	*^	*
2G#;/	2E\	2dd;/	2b\	.
2r;	2ryy	2r;	2ryy	.
*	*	*v	*v	*
*v	*v	*	*
=286	=286	=286
2A\	(8a\L	.
.	8cc#\	.
.	8b\	.
.	8a\J	.
4G#\	8b\L	.
.	8cc#\	.
4E\	8dd\	.
.	8ee\J)	.
=287	=287	=287
*^	*	*
2.A\	2.ryy	(8dd\L	.
.	.	8cc#\	.
.	.	8b\	.
.	.	8cc#\J	.
.	.	8a/L	.
.	.	8cc#/	.
4A/	4Gn\	8b/	.
.	.	8a/J)	.
*v	*v	*	*
=288	=288	=288
4F#\ 4A	(8dd\L	.
.	8a\	.
4G#\ 4B	8dd\	.
.	8b\J	.
2A\	8cc#\L	.
.	8a\	.
.	8b\	.
.	8cc#\J)	.
!!LO:LB:g=original
=289	=289	=289
4E\ 4G# 4B	8b\L	.
.	8ee\	<
4r	8ee\	.
.	8ee\J	.
2r	8ee\L	.
.	8ee\	.
.	8ee\	.
.	8ee\J	[[
=290	=290	=290
(2A\	(8a\L	.
.	8cc#\	.
.	8b\	.
.	8a\J	.
4G#\	8b\L	.
.	8cc#\	.
4E\)	8dd\	.
.	8ee\J)	.
=291	=291	=291
[1A	(8dd\L	.
.	8cc#\	.
.	8b\	.
.	8cc#\J	.
.	8a/L	.
.	8cc#/	.
.	8b/	.
.	8a/J)	.
=292	=292	=292
*^	*	*
2A/]	1E	(8b\L	.
.	.	8cc#\	.
.	.	8dd\	.
.	.	8cc#\J	.
2G#/	.	8ee\L	.
.	.	8dd\	.
.	.	8cc#\	.
.	.	8b\J	.
*v	*v	*	*
!!LO:LB:g=original
=293	=293	=293
4A\	4a/)	.
4A\	4a/ 4cc#	.
4A\	4a/	.
4r	4r	.
!!LO:PB:g=original
=294:|!	=294:|!	=294:|!
*>g	*>g	*
*k[f#c#g#]	*k[f#c#g#]	*
*M2/2	*M2/2	*
*met(c|)	*met(c|)	*
!	!	!LO:DY:rj
4A\	4a/	f
[4A\	4cc#\	.
8A\]	4b\	.
4.G#\	.	.
.	4b\ 4ee	.
=295	=295	=295
4A\	4a/ 4cc#	.
[4A\	2a/ 2cc#	.
8A\]	.	.
4.Gn\	.	.
.	4a/ 4cc#	.
=296	=296	=296
4F#\	4a\ 4dd	.
4G#\	4.b\ [4.dd	.
2A\	.	.
.	8dd\L]	.
.	8cc#\	.
.	8a\J	.
=297	=297	=297
*^	*	*
4G#/	4E\	4b\	.
4G#/	4E\	4b\ 4ee	.
8G#/L	8E\	4b\ 4ee	.
8E/	4.ryy	.	.
8F#/	.	4r	.
8G#/J	.	.	.
*v	*v	*	*
!!LO:LB:g=original
=298	=298	=298
4A\	4a/	.
[4A\	4a/ 4cc#	.
8A\]	4b/	.
4.G#\	.	.
.	4b\ 4ee	.
=299	=299	=299
*	*^	*
2A\	4cc#\	4ryy	.
.	2cc#/	2a\	.
2A\	.	.	.
.	4cc#\	4ryy	.
*	*v	*v	*
=300	=300	=300
4G#\	4b\	.
4A\	2ee\	.
[4B\	.	.
8B\L]	4dd#X\	.
8A\J	.	.
=301	=301	=301
(>[>2E\ 2A	(>(>2b\ 2dd#X	.
8E\]) 8G#	8b\)) 8ee	.
8r	8r	.
4r	4r	.
!!LO:LB:g=original
=302:|!	=302:|!	=302:|!
*>h	*>h	*
!	!	!LO:DY:rj
2r	4ee\	p
.	4ee\	.
2A#X\	4cc#\	.
.	4cc#\	.
=303	=303	=303
*	*^	*
4B\	4dd/	4cc#\	.
4F#\	2dd/	4cc#\	.
4B\	.	4b\	.
4An\	4dd/	4b\	.
*	*v	*v	*
=304	=304	=304
1G#X	4dd\	.
.	4dd\	.
.	4b\	.
.	4b\	.
=305	=305	=305
*	*^	*
4A\	4cc#/	4b\	.
4E\	2cc#/	4b\	.
4A\	.	4a\	.
4E\	4ee/	4cc#\	.
!!LO:LB:g=original
=306	=306	=306	=306
2G#\	(4ee/	2b^\	.
.	4dd/)	.	.
[2A\	(4dd/	2a^\	.
.	4cc#/)	.	.
*	*v	*v	*
=307	=307	=307
*^	*	*
4A/]	2E\	2b\	.
4G#/	.	.	.
2A/	2E\	4cc#\	.
.	.	4ee\	.
*v	*v	*	*
=308	=308	=308
*	*^	*
2G#\	(4ee/	2b^\	.
.	4dd/)	.	.
[2A\	(4dd/	2a^\	.
.	4cc#/)	.	.
=309	=309	=309	=309
*^	*	*	*
!	!	!	!	!LO:DY:rj
4A/]	2E\	2b\	2ryy	f
4G#/	.	.	.	.
2A/	2E\	4cc#/	2a\	.
.	.	4ee/	.	.
=310	=310	=310	=310	=310
!	!	!	!	!LO:DY:rj
4G#/	4E\	4b/	4ryy	ff
4r	4ryy	4r	4r	.
4A/	4E\	4cc#/	4a\	.
4r	4ryy	4r	4r	.
*v	*v	*	*	*
=311	=311	=311	=311
2E;\ 2G#	2dd;/	2b\	.
2r;	2r;	2r;yy	.
*	*v	*v	*
!!LO:LB:g=original
=312	=312	=312
!	!	!LO:DY:rj
[2A\	4a/	f
.	4cc#\	.
8A\]	4b\	.
4.G#\	.	.
.	4b\ 4ee	.
=313	=313	=313
*	*^	*
[2A\	4cc#/	4a\	.
.	2cc#^/	2a\	.
8A\]	.	.	.
4.Gn\	.	.	.
.	4cc#/	[>4a\	.
=314	=314	=314	=314
4F#\	4dd/	4a\]	.
4G#\	[4dd/	4b\	.
2A\	8dd/L]	2a\	.
.	8dd/	.	.
.	8cc#/	.	.
.	8a/J	.	.
*	*v	*v	*
=315	=315	=315
*^	*	*
4G#/	2E\	4b\	.
4G#/	.	4b\ 4ee	.
(8A/L	8E\	4b\ 4ee	.
8E/	4.ryy	.	.
8F#/	.	4r	.
8G#/J)	.	.	.
*v	*v	*	*
!!LO:LB:g=original
=316	=316	=316
[2A\	4a/	.
.	4a/ 4cc#	.
8A\]	4b/	.
4.G#\	.	.
.	4b\ 4ee	.
=317	=317	=317
2A\	4a/ 4cc#	.
.	2a^/ 2cc#	.
2A\	.	.
.	4cc#/	.
=318	=318	=318
*^	*	*
4A/	2E\	4b\	.
4A/	.	4b\	.
4G#/	2E\	4b\ 4ee	.
4G#/	.	4b\ 4ee	.
*v	*v	*	*
=319	=319	=319
4A\	4a/	.
4A\	4a/ 4cc#	.
4A\	4a/	.
4r	4r	.
!!LO:PB:g=original
=320||	=320||	=320||
*>i	*>i	*
*k[f#c#g#]	*k[f#c#g#]	*
*M4/4	*M4/4	*
*met(c)	*met(c)	*
!	!	!LO:DY:rj
4A\	8r	f
.	8a\ 8cc#	.
4A\	8r	.
.	8a\ 8cc#	.
4G#\	8r	.
.	8b\ 8ee	.
4G#\	8r	.
.	8b\ 8ee	.
=321	=321	=321
4A\	8r	.
.	8a\ 8cc#	.
4A\	8r	.
.	8cc#\ 8ee	.
4A\	8r	.
.	8a\ 8cc#	.
4A\	8r	.
.	8cc#\ 8ee	.
=322	=322	=322
4F#\	8r	.
.	8a\ 8dd	.
4G#\	8r	.
.	8b\ 8ee	.
4A\	8r	.
.	8cc#\	.
4A\	8r	.
.	8cc#\	.
!!LO:LB:g=original
=323	=323	=323
4E\ 4G#	8r	.
.	8b\	.
4E\ 4G#	8r	.
.	8b\ 8ee	.
4E\ 4G#	8r	.
.	8b\	.
4E\ 4G#	8r	.
.	8b\ 8ee	.
=324	=324	=324
4A\	8r	.
.	8a\ 8cc#	.
4A\	8r	.
.	8a\ 8cc#	.
4G#\	8r	.
.	8b\ 8ee	.
4G#\	8r	.
.	8b\ 8ee	.
=325	=325	=325
4A\	8r	.
.	8a\ 8cc#	.
4A\	8r	.
.	8cc#\ 8ee	.
4A\	8r	.
.	8a\ 8cc#	.
4A\	8r	.
.	8cc#\ 8ee	.
=326	=326	=326
4G#\	8r	.
.	8b\	.
4A\	8r	.
.	8ee\	.
4B\	8r	.
.	8ee\	.
4B\	8r	.
.	8dd#X\	.
!!LO:LB:g=original
=327	=327	=327
4E\ 4A	8r	.
.	8dd#X\	.
4E\ 4A	8r	.
.	8dd#\	.
4E\ 4G#	8r	.
.	8ee\	.
4E\ 4G#	8r	.
.	8ee\	.
=328:|!|:	=328:|!|:	=328:|!|:
*>j	*>j	*
2A#X\	8r	rf
.	8cc#\L 8ee	.
.	8cc#\ 8ee	.
.	8cc#\J 8ee	.
2A#\	8r	.
.	8cc#\L	.
.	8cc#\	.
.	8cc#\J	.
=329	=329	=329
2B\	8r	.
.	8b\L 8dd	.
.	8b\ 8dd	.
.	8b\J 8dd	.
2B\	8r	.
.	8b\L 8dd	.
.	8b\ 8dd	.
.	8b\J 8dd	.
=330	=330	=330
2G#\	8r	rf
.	8b\L 8dd	.
.	8b\ 8dd	.
.	8b\J 8dd	.
2G#\	8r	.
.	8b\L	.
.	8b\	.
.	8b\J	.
!!LO:LB:g=original
=331	=331	=331
2A\	8r	.
.	8a\L 8cc#	.
.	8a\ 8cc#	.
.	8a\J 8cc#	.
2A\	8r	.
.	8cc#\L 8ee	.
.	8cc#\ 8ee	.
.	8cc#\J 8ee	.
=332	=332	=332
2E\ 2G#	8r	.
.	8b\L 8dd 8ee	.
.	8b\ 8dd 8ee	.
.	8b\J 8dd 8ee	.
2E\ 2A	8r	.
.	8a\L 8cc# 8ee	.
.	8a\ 8cc# 8ee	.
.	8a\J 8cc# 8ee	.
=333!|:	=333!|:	=333!|:
2G#\	8r	.
.	8dd\L 8ee	.
.	8dd\ 8ee	.
!	!LO:TX:a:t=bis	!
.	8dd\J 8ee	.
2A\	8r	.
.	8cc#\L 8ee	.
.	8cc#\ 8ee	.
.	8cc#\J 8ee	.
=334:|!	=334:|!	=334:|!
2E\ 2G#	2b\ 2dd 2ee	.
2E\ 2A	2a\ 2cc# 2ee	.
=335	=335	=335
*^	*	*
2G#;/	2E\	2b;\ 2dd 2ee	.
2r;	2ryy	2r;	.
*v	*v	*	*
!!LO:LB:g=original
=336	=336	=336
8A\	8r	.
8r	8a\ 8cc#	.
8A\	8r	.
8r	8a\ 8cc#	.
8G#\	8r	.
8r	8b\ 8ee	.
8G#\	8r	.
8r	8b\ 8ee	.
=337	=337	=337
8A\	8r	.
8r	8a\ 8cc#	.
8A\	8r	.
8r	8cc#\ 8ee	.
8A\	8r	.
8r	8a\ 8cc#	.
8A\	8r	.
8r	8cc#\ 8ee	.
=338	=338	=338
8F#\	8r	.
8r	8a\ 8dd	.
8G#\	8r	.
8r	8b\ 8dd	.
8A\	8r	.
8r	8a\ 8cc#	.
8A\	8r	.
8r	8a\ 8cc#	.
=339	=339	=339
8E\ 8G#	8r	.
8r	8b\	.
8E\ 8G#	8r	.
8r	8b\ 8ee	.
8E\ 8G#	8r	.
8r	8b\	.
8E\ 8G#	8r	.
8r	8b\ 8ee	.
!!LO:LB:g=original
=340	=340	=340
8A\	8r	.
8r	8a\ 8cc#	.
8A\	8r	.
8r	8a\ 8cc#	.
8G#\	8r	.
8r	8b\ 8ee	.
8G#\	8r	.
8r	8b\ 8ee	.
=341	=341	=341
8A\	8r	.
8r	8a\ 8cc#	.
8A\	8r	.
8r	8cc#\ 8ee	.
8A\	8r	.
8r	8a\ 8cc#	.
8A\	8r	.
8r	8cc#\ 8ee	.
=342	=342	=342
8E\ 8G#	8r	.
8r	8b\	.
8E\ 8G#	8r	.
8r	8b\	.
8E\ 8G#	8r	.
8r	8b\ 8ee	.
8E\ 8G#	8r	.
8r	8b\ 8ee	.
=343	=343	=343
8A\	8r	.
8r	8a\ 8cc#	.
8A\	8r	.
8r	8cc#\ 8ee	.
8A\	8r	.
8r	8a\ 8cc#	.
4r	4r	.
!!LO:PB:g=original
=344:|!	=344:|!	=344:|!
*>k	*>k	*
*k[f#c#g#]	*k[f#c#g#]	*
*M2/2	*M2/2	*
*met(c|)	*met(c|)	*
!	!LO:TX:a:i:t=Vivace	!LO:DY:rj
4A\	(8cc#\L	f
.	8ee\	.
2A^<\	8cc#\	.
.	8ee\J	.
.	8b\L	.
.	8ee\	.
4G#\	8b\	.
.	8ee\J	.
=345	=345	=345
4A\	8cc#\L	.
.	8ee\	.
[4Gn^<\	8a\	.
.	8cc#\J	.
(8G\L]	2dd\)	.
8F#\	.	.
8E\	.	.
8F#\J	.	.
=346	=346	=346
*	*^	*
4G#X\)	8b/L	4b\	.
.	8ee/	.	.
4E\	8dd/	4b\	.
.	8ee/J	.	.
8A\L	4.cc#/	4b\	.
8G#\	.	.	.
8A\	.	8a\L	.
8D\J	8dd/	8b\J	.
!!LO:LB:g=original
=347	=347	=347	=347
8E\L	4cc#/	4a\	.
8A\	.	.	.
8E\	4b/	4ryy	.
8G#\J	.	.	.
8A\L	2a/	2ryy	.
8E\	.	.	.
8F#\	.	.	.
8G#\J	.	.	.
*	*v	*v	*
=348:|!|:	=348:|!|:	=348:|!|:
*>l	*>l	*
4A\	(8cc#\L	.
.	8ee\	.
4r	8cc#\	.
.	8ee\J)	.
(8A\L	2a^/	.
8E\	.	.
8A\	.	.
8E\J)	.	.
=349	=349	=349
4A\	(8cc#\L	.
.	8ee\	.
4r	8cc#\	.
.	8ee\J)	.
(8G#\L	2b^<\	.
8E\	.	.
8G#\	.	.
8E\J)	.	.
=350	=350	=350
4G#\	8b\L	.
.	8ee\	.
4r	8b\	.
.	8ee\J	.
8F#\L	4a/	.
8A\	.	.
8F#\	4r	.
8A\J	.	.
!!LO:LB:g=original
=351	=351	=351
*	*^	*
(8F#\L	4dd#X/	4b\	.
8A\	.	.	.
8F#\	4dd#/	4b\	.
8A\J	.	.	.
8E\L	2ee/	2b\	.
8G#\	.	.	.
8E\	.	.	.
8G#\J)	.	.	.
*	*v	*v	*
=352	=352	=352
!	!	!LO:DY:rj
4A\	(8ccn\L	p
.	8ee\	.
4r	8cc\	.
.	8ee\J)	.
(8A\L	2a^/	.
8E\	.	.
8A\	.	.
8E\J)	.	.
=353	=353	=353
4A\	(8ccn\L	.
.	8ee\	.
4r	8cc\	.
.	8ee\J)	.
(8Gn\L	2b^<\	.
8E\	.	.
8G\	.	.
8E\J)	.	.
=354	=354	=354
4Gn\	(8b\L	.
.	8ee\	.
4r	8b\	.
.	8ee\J)	.
(8Fn\L	4a/	.
8A\	.	.
8F\	4a/	.
8A\J)	.	.
!!LO:LB:g=original
=355	=355	=355
(8Fn\L	(8a/L	.
8A\	8b/	.
8F\	8ccn/	.
8A\J	8a/J)	.
8G#\L	2ee\	.
8F#X\	.	.
8G#\	.	.
8E\J)	.	.
=356	=356	=356
!	!	!LO:DY:rj
4A\	8cc#\L	f
.	8ee\	.
2A\	8cc#\	.
.	8ee\J	.
.	8b\L	.
.	8ee\	.
4G#\	8b\	.
.	8ee\J	.
=357	=357	=357
4A\	8cc#\L	.
.	8ee\	.
[4Gn\	8a\	.
.	8cc#\J	.
(8G\L]	2dd\	.
8F#\	.	.
8E\	.	.
8F#\J)	.	.
!!LO:LB:g=original
=358	=358	=358
*	*^	*
4G#X\	8b/L	4b\	.
.	8ee/	.	.
4E\	8dd/	4b\	.
.	8ee/J	.	.
8A\L	4.cc#/	4b\	.
8G#\	.	.	.
8A\	.	8a\L	.
8D\J	8dd/	8b\J	.
=359	=359	=359	=359
!LO:TX:t=1.	!LO:TX:t=1.	!LO:TX:t=1.	!
*>l1	*>l1	*>l1	*
(8E\L	4cc#/	4a\	.
8A\	.	.	.
8E\	4b/	4ryy	.
8G#\J	.	.	.
8A\L	2a/	2ryy	.
8E\	.	.	.
8F#\	.	.	.
8G#\J)	.	.	.
=360:|!	=360:|!	=360:|!	=360:|!
!LO:TX:t=2.	!LO:TX:t=2.	!LO:TX:t=2.	!
*>l2	*>l2	*>l2	*
8E\L	4cc#/	4a\	.
8A\	.	.	.
8E\	4b/	4ryy	.
8G#\J	.	.	.
2A\	2a/	2ryy	.
*	*v	*v	*
!!LO:PB:g=original
=361||	=361||	=361||
*>m	*>m	*
*k[f#c#g#]	*k[f#c#g#]	*
*M4/4	*M4/4	*
*met(c)	*met(c)	*
!	!LO:TX:a:i:t=Scherzando,	!
(2A\	(4a/	.
.	4cc#\	.
4G#\)	4ee\)	.
4E'\	4ee'\	.
=362	=362	=362
2.A\	(8dd\L	.
.	8cc#\	.
.	8b\	.
.	8cc#\J)	.
.	2a^/	.
4Gn\	.	.
=363	=363	=363
4F#\	4dd|\	.
4G#X\	(4dd\	.
2A\	4cc#\	.
.	4a\)	.
=364	=364	=364
4E\ 4G#	4b\	.
4E\ 4G#	4ee\	.
8E\L 8G#	4ee\	.
8E\	.	.
8F#\	4r	.
8G#\J	.	.
!!LO:LB:g=original
=365	=365	=365
(2A\	4cc#\	.
.	4a\	.
(4G#\)	4b\	.
4E\)	4ee\	.
=366	=366	=366
2.A\	(8dd\L	.
.	8cc#\	.
.	8b\	.
.	8cc#\J)	.
.	4a\	.
4A\	4cc#\	.
=367	=367	=367
4G#\	4b\	.
4A\	2ee\	.
4B\	.	.
4A\	4dd#X\	.
=368	=368	=368
*^	*	*
2A/	2E\	(2dd#X^<\	.
8G#/	8E\	8ee\)	.
8r	8ryy	8r	.
4r	4ryy	4r	.
*v	*v	*	*
!!LO:LB:g=original
=369:|!	=369:|!	=369:|!
*>n	*>n	*
2r	4ee'\	.
.	(4ee\	.
2A#X^<\	4cc#\)	.
.	(4cc#\	.
=370	=370	=370
(4B\	4dd\)	.
4F#\	2dd\	sf
4B\	.	.
4An\)	4dd\	.
=371	=371	=371
1G#X^<	4dd\	.
.	(4dd\	.
.	4b\)	.
.	(4b\	.
=372	=372	=372
(4A\	4cc#\)	.
4E\	2cc#\	sf
4A\	.	.
4E\)	4ee\	.
!!LO:LB:g=original
=373	=373	=373
(4G#\	4dd\	.
4E\	(4dd\	.
4A\	4cc#\)	.
4E\	4cc#\	.
=374	=374	=374
4G#\	2b\	.
4E\	.	.
4A\	4cc#\	.
4E\	4ee\	.
=375	=375	=375
4G#\	4dd\	.
4E\	(4dd\	.
4A\	4cc#\)	.
4E\	(4cc#\	.
=376	=376	=376
4G#\	4b\)	.
4E\	4r	.
4A\	(8cc#\L	.
.	8ee\	.
4E\)	8cc#\	.
.	8ee\J)	.
!!LO:LB:g=original
=377	=377	=377
4G#\	4b\	.
!	!	!LO:HP:t=cres&colon;
4r	4r	<
4A\	4cc#\	.
4r	4r	.
=378	=378	=378
*^	*^	*
2G#X;/	2E\	2dd;/	2b\	.
!	!	!LO:TX:b:i:t=Cadenza,	!	!
2r	2ryy	2ryy	2ryy	.
.	.	(>4qqdd/	.	.
.	.	4qqcc#/	.	.
.	.	4qqdd/	.	.
.	.	4qqcc#/	.	.
.	.	4qqee/	.	.
.	.	4qqdd/	.	.
.	.	4qqcc#/	.	.
.	.	4qqb/)	.	.
*v	*v	*	*	*
*	*v	*v	*
=379	=379	=379
2A\	4a\	.
.	4cc#\	.
4G#\	4ee\	.
4E\	4ee\	.
=380	=380	=380
2.A\	(8dd\L	.
.	8cc#\	.
.	8b\	.
.	8cc#\J	.
.	2a/)	.
4Gn\	.	.
=381	=381	=381
4F#\	4dd|\	.
4G#X\	(4dd\	.
2A\	4cc#\)	.
.	4a|/	.
!!LO:LB:g=original
=382	=382	=382
4E\ 4G#	4b\	.
4E\ 4G#	4ee\	.
8E\L 8G#	4ee\	.
8E\	.	.
8F#\	4r	.
8G#\J	.	.
=383	=383	=383
(2A\	(4cc#\	.
.	4a\	.
4G#\	4b\	.
4E\)	4ee\)	.
=384	=384	=384
2.A\	(8dd\L	.
.	8cc#\	.
.	8b\	.
.	8cc#\J)	.
.	4a\	.
(4A\	4cc#\	.
=385	=385	=385
*^	*	*
2G#/)	1E	8b\L	.
.	.	8cc#\	.
.	.	8dd\	.
.	.	8cc#\J	.
2G#/	.	8ee\L	.
.	.	8dd\	.
.	.	8cc#\	.
.	.	8b\J	.
*v	*v	*	*
=386	=386	=386
4A\	4a/	.
4A\	4a/ 4cc#	.
4A\	4a/	.
4r	4r	.
!!LO:PB:g=original
=:|!	=:|!	=:|!
*-	*-	*-
!!!system-decoration: {(s1,s2)}
!!!RDF**kern: < = below
!!!RDF**kern: > = above
!!!RDF**kern: | = vertical stroke
!!!ENC: Marta Chmielewska
!!!END: 2021-06-07
!!!ENC: Berenika Jozajtis
!!!END: 2021-04-11
!!!YEC: Copyright 2022 Narodowy Instytut Fryderyka Chopina (https://polishscores.org)
!!!YEM: License CC-BY-4.0 (https://creativecommons.org/licenses/by/4.0)
